resources/svg/graphql-o.svg

<svg width="15" height="15" viewBox="0 0 15 15" fill="none" xmlns="http://www.w3.org/2000/svg">
<path d="M2.60915 4.43189L6.75194 2.01526L6.24806 1.15148L2.10528 3.56811L2.60915 4.43189ZM2 9.5V5.5H1V9.5H2ZM8.24806 2.01526L12.3909 4.43189L12.8947 3.56811L8.75194 1.15148L8.24806 2.01526ZM13 5.5V9.5H14V5.5H13ZM12.7481 10.3598L8.24806 12.9848L8.75194 13.8486L13.2519 11.2236L12.7481 10.3598ZM6.75194 12.9848L2.60915 10.5682L2.10528 11.432L6.24806 13.8486L6.75194 12.9848ZM6.58397 1.97265L1.58397 9.47265L2.41603 10.0274L7.41603 2.52735L6.58397 1.97265ZM13.416 9.47265L8.41603 1.97265L7.58397 2.52735L12.584 10.0274L13.416 9.47265ZM2.5 11H12.5V10H2.5V11ZM7.5 2C7.22386 2 7 1.77614 7 1.5H6C6 2.32843 6.67157 3 7.5 3V2ZM8 1.5C8 1.77614 7.77614 2 7.5 2V3C8.32843 3 9 2.32843 9 1.5H8ZM7.5 1C7.77614 1 8 1.22386 8 1.5H9C9 0.671573 8.32843 0 7.5 0V1ZM7.5 0C6.67157 0 6 0.671573 6 1.5H7C7 1.22386 7.22386 1 7.5 1V0ZM13.5 5C13.2239 5 13 4.77614 13 4.5H12C12 5.32843 12.6716 6 13.5 6V5ZM14 4.5C14 4.77614 13.7761 5 13.5 5V6C14.3284 6 15 5.32843 15 4.5H14ZM13.5 4C13.7761 4 14 4.22386 14 4.5H15C15 3.67157 14.3284 3 13.5 3V4ZM13.5 3C12.6716 3 12 3.67157 12 4.5H13C13 4.22386 13.2239 4 13.5 4V3ZM13.5 11C13.2239 11 13 10.7761 13 10.5H12C12 11.3284 12.6716 12 13.5 12V11ZM14 10.5C14 10.7761 13.7761 11 13.5 11V12C14.3284 12 15 11.3284 15 10.5H14ZM13.5 10C13.7761 10 14 10.2239 14 10.5H15C15 9.67157 14.3284 9 13.5 9V10ZM13.5 9C12.6716 9 12 9.67157 12 10.5H13C13 10.2239 13.2239 10 13.5 10V9ZM7.5 14C7.22386 14 7 13.7761 7 13.5H6C6 14.3284 6.67157 15 7.5 15V14ZM8 13.5C8 13.7761 7.77614 14 7.5 14V15C8.32843 15 9 14.3284 9 13.5H8ZM7.5 13C7.77614 13 8 13.2239 8 13.5H9C9 12.6716 8.32843 12 7.5 12V13ZM7.5 12C6.67157 12 6 12.6716 6 13.5H7C7 13.2239 7.22386 13 7.5 13V12ZM1.5 11C1.22386 11 1 10.7761 1 10.5H0C0 11.3284 0.671573 12 1.5 12V11ZM2 10.5C2 10.7761 1.77614 11 1.5 11V12C2.32843 12 3 11.3284 3 10.5H2ZM1.5 10C1.77614 10 2 10.2239 2 10.5H3C3 9.67157 2.32843 9 1.5 9V10ZM1.5 9C0.671573 9 0 9.67157 0 10.5H1C1 10.2239 1.22386 10 1.5 10V9ZM1.5 5C1.22386 5 1 4.77614 1 4.5H0C0 5.32843 0.671573 6 1.5 6V5ZM2 4.5C2 4.77614 1.77614 5 1.5 5V6C2.32843 6 3 5.32843 3 4.5H2ZM1.5 4C1.77614 4 2 4.22386 2 4.5H3C3 3.67157 2.32843 3 1.5 3V4ZM1.5 3C0.671573 3 0 3.67157 0 4.5H1C1 4.22386 1.22386 4 1.5 4V3Z" fill="black"/>
</svg>

<svg viewBox="0 0 15 15" fill="none" xmlns="http://www.w3.org/2000/svg" fill="currentColor"><path d="M2.61 4.432l4.142-2.417-.504-.864-4.143 2.417.504.864zM2 9.5v-4H1v4h1zm6.248-7.485l4.143 2.417.504-.864-4.143-2.417-.504.864zM13 5.5v4h1v-4h-1zm-.252 4.86l-4.5 2.625.504.864 4.5-2.625-.504-.864zm-5.996 2.625l-4.143-2.417-.504.864 4.143 2.417.504-.864zM6.584 1.973l-5 7.5.832.554 5-7.5-.832-.554zm6.832 7.5l-5-7.5-.832.554 5 7.5.832-.554zM2.5 11h10v-1h-10v1zm5-9a.5.5 0 01-.5-.5H6A1.5 1.5 0 007.5 3V2zm.5-.5a.5.5 0 01-.5.5v1A1.5 1.5 0 009 1.5H8zM7.5 1a.5.5 0 01.5.5h1A1.5 1.5 0 007.5 0v1zm0-1A1.5 1.5 0 006 1.5h1a.5.5 0 01.5-.5V0zm6 5a.5.5 0 01-.5-.5h-1A1.5 1.5 0 0013.5 6V5zm.5-.5a.5.5 0 01-.5.5v1A1.5 1.5 0 0015 4.5h-1zm-.5-.5a.5.5 0 01.5.5h1A1.5 1.5 0 0013.5 3v1zm0-1A1.5 1.5 0 0012 4.5h1a.5.5 0 01.5-.5V3zm0 8a.5.5 0 01-.5-.5h-1a1.5 1.5 0 001.5 1.5v-1zm.5-.5a.5.5 0 01-.5.5v1a1.5 1.5 0 001.5-1.5h-1zm-.5-.5a.5.5 0 01.5.5h1A1.5 1.5 0 0013.5 9v1zm0-1a1.5 1.5 0 00-1.5 1.5h1a.5.5 0 01.5-.5V9zm-6 5a.5.5 0 01-.5-.5H6A1.5 1.5 0 007.5 15v-1zm.5-.5a.5.5 0 01-.5.5v1A1.5 1.5 0 009 13.5H8zm-.5-.5a.5.5 0 01.5.5h1A1.5 1.5 0 007.5 12v1zm0-1A1.5 1.5 0 006 13.5h1a.5.5 0 01.5-.5v-1zm-6-1a.5.5 0 01-.5-.5H0A1.5 1.5 0 001.5 12v-1zm.5-.5a.5.5 0 01-.5.5v1A1.5 1.5 0 003 10.5H2zm-.5-.5a.5.5 0 01.5.5h1A1.5 1.5 0 001.5 9v1zm0-1A1.5 1.5 0 000 10.5h1a.5.5 0 01.5-.5V9zm0-4a.5.5 0 01-.5-.5H0A1.5 1.5 0 001.5 6V5zm.5-.5a.5.5 0 01-.5.5v1A1.5 1.5 0 003 4.5H2zM1.5 4a.5.5 0 01.5.5h1A1.5 1.5 0 001.5 3v1zm0-1A1.5 1.5 0 000 4.5h1a.5.5 0 01.5-.5V3z" fill="currentColor"/></svg>
